assets/icons/qvision/rowing.svg

<svg xmlns="http://www.w3.org/2000/svg" enable-background="new 0 0 24 24" height="24" viewBox="0 0 24 24" width="24"><g><rect fill="none" height="24" width="24"/></g><g><g><g><path d="M8.5,14.5L4,19l1.5,1.5L9,17h2L8.5,14.5z M15,1c-1.1,0-2,0.9-2,2s0.9,2,2,2s2-0.9,2-2S16.1,1,15,1z M21,21.01L18,24 l-2.99-3.01V19.5l-7.1-7.09C7.6,12.46,7.3,12.48,7,12.48v-2.16c1.66,0.03,3.61-0.87,4.67-2.04l1.4-1.55 C13.42,6.34,14.06,6,14.72,6h0.03C15.99,6.01,17,7.02,17,8.26v5.75c0,0.84-0.35,1.61-0.92,2.16l-3.58-3.58v-2.27 c-0.63,0.52-1.43,1.02-2.29,1.39L16.5,18H18L21,21.01z"/></g></g></g></svg>

<svg width="24" height="24" viewBox="0 0 24 24" fill="none" xmlns="http://www.w3.org/2000/svg">
<g clip-path="url(#clip0_147_4658)">
<path d="M8.5 14.5L4 19L5.5 20.5L9 17H11L8.5 14.5ZM15 1C13.9 1 13 1.9 13 3C13 4.1 13.9 5 15 5C16.1 5 17 4.1 17 3C17 1.9 16.1 1 15 1ZM21 21.01L18 24L15.01 20.99V19.5L7.91 12.41C7.6 12.46 7.3 12.48 7 12.48V10.32C8.66 10.35 10.61 9.45 11.67 8.28L13.07 6.73C13.42 6.34 14.06 6 14.72 6H14.75C15.99 6.01 17 7.02 17 8.26V14.01C17 14.85 16.65 15.62 16.08 16.17L12.5 12.59V10.32C11.87 10.84 11.07 11.34 10.21 11.71L16.5 18H18L21 21.01Z" fill="#323232"/>
</g>
<defs>
<clipPath id="clip0_147_4658">
<rect width="24" height="24" fill="white"/>
</clipPath>
</defs>
</svg>
